X:465
T:Reel 465
M:4/4
K:Dmix
L:1/8
cB|AD (3DDD A2GE|FD (3EDC ECGE|A,D (3DDD AcBd||cAGE D2:||2AGEF D2|Addc |Addc dcdf|ecAc cdce|Addc dcdf|edec d2cB|Addc dfed|cAGF ECcB|DFED Dfedcd|eAGE D2|
